X: 1166
T: Issız Gecelerin Karanlığında
C: Ömer Sami Güpgüp
O: Turkey
F: http://compmusic.upf.edu/node/140
N: segah--sarki--duyek--issiz_gecelerin--omer_sami_gupgup
N: makam= segah
N: form= sarki
N: usul= duyek = 8/4
M: 8/4
L: 1/16
K: C _1/4B _1/4e ^f 
Q: 1/4=132
%%MIDI tuningsystem comma53
z2 c6 B2 d6  | z2 c6 B2 d6  | z2 B2 B2 c2 d8  | \
w:  Is sız   |  SAZ  |  ge ce le rin   | 
d2 e4 g2 fe ed d4  | 
w:  ka ran lı ğın *  *  *  da   | 
z2 g4 _7/8b2 ag2f f4  | z2 g2 f2 e2 d8  | \
w:  sev *  gin *  *  le   |  a vu nu rum    | 
d6 c2 B2 ^A2 B4  | z2 c6 B2 d6  | 
w:  SAZ  |  Is sız   | 
z2 c6 B2 d6  | z2 B2 B2 c2 d8  | d2 e4 g2 fe ed d4  | \
w:  SAZ  |  ge ce le rin   |  ka ran lı ğın *  *  *  da   | 
z2 g4 _7/8b2 ag2f f4  | 
w:  sev *  gin *  *  le   | 
z2 g2 f2 e2 d8  | d2 fe d2 e2 e2 g2 f4  | \
w:  a vu nu rum    |  SAZ  | 
g4 a4 g2 f2 z4  | g2 g6 g2 a2 g2 f2  | 
w:  Meh tab  gi bi   |  se ma dan   | 
g4 fe ed e8  | z2 d3c B2 c8  | B4 B2 B2 ^A6 cB  | \
w:  *  sü *  zü *  lüp   |  bir *  den_ ah   |  gön lü me  düş  | 
B8 d2 c2 B2 c2  | 
w:  tün   SAZ  | 
d2 fe d2 e2 g2 f4 z2  | g4 a4 g2 f2 z4  | \
w:   |  Meh tab  gi bi   | 
g2 g6 g2 a2 g2 f2  | g4 fe ed e8  | 
w:  se ma dan   |  *  sü *  zü *  lüp   | 
z2 d3c B2 c8  | B4 B2 B2 ^A6 cB  | B8 d2 c2 B2 c2  | z20  | \
w:  bir *  den_ ah   |  gön lü me  düş  |  tün   SAZ  |  | 
B4_2/4e2d2c2 B2c2d6  | 
w:  SAZ  | 
z4d2_2/4e4 e2d2c2B2c2  | d8-d2 d4B2c2d2  | \
w:  Gö nül  gör *  *  *  me  |  den  SAZ  | 
d6e4 c4d6  | B8-B2 zGABc defgf  | 
w:  göz ler  de  gör  |  mez  SAZ  | 
z4f2g4 g8-g2  | a4g2g4 g2_b2a gf^ef2  | \
w:  in *  san   |  sev *  dâ sız   | 
a4g2(3g2f2e2 d4d2e2g2  | 
w:  bil  *  ki  *  *  ya şa  | 
f8-f2 f4f6  | a2g2_b2(3a2g2f2 g4f2e2d2  | \
w:  maz   |  bil  *  *  ki  *  *  ya şa  | 
d8-d2 d4d6  | z16  | d2 fe d2 e2 e2 g2 f4  | 
w:  maz  *  SAZ  |  |  SAZ  | 
g4 a4 g2 f2 z4  | g2 g6 g2 a2 g2 f2  | \
w:  Meh tab  gi bi   |  se ma dan   | 
g4 fe ed e8  | z2 d3c B2 c8  | 
w:  *  sü *  zü *  lüp   |  bir *  den_ ah   | 
B4 B2 B2 ^A6 cB  | B8 |
w:  gön lü me  düş  |  tün    | 


